X: 10
T: Chiara Stella
P: ABB x 4
K: D minor
M: 3/4
L: 1/8
P: A
"A"^C2D2E2 | E4E2 | E4E2 | "Dm"F4G2 | "F"A6 | "C"G2F2G2 | \
"F"A6 | A4G2 | "Dm"F3ED2 | "A"^C2D2E2 | "Dm"D4D2 | D4D2 | \
"A"^C2D2E2 | E4E2 | E4E2 | "Dm"F4G2 | "F"A6 | "C"G2F2G2 | \
"F"A6 | A4G2 | "Dm"F3ED2 | "A"^C2D2E2 | "Dm"D4F2 | F3ED2 | \
"A"E4^C2 | "G"=B,3^CD2 | "A"E4"Dm"F2 | F3ED2 | "A"E4^C2 | "G"=B,3^CD2 |\
"A"E4E2 | E6 |: 
P: B
"F"A4A2 | A4"C"G2 | "F"A4A2 | A4"C"G2 | \
"Dm"F3ED2 | "A"^C2D2E2 | "Dm"D4D2 | D6 :| 

